!!!!SEGMENT: pl-kk--kk-i-10--019_anonim--sub-tuum-praesidium.krn
!!!cenid: 16xx:1215
!!!COM: Anonim
!!!COM-rismID: pe30004985
!!!CDT:
!!!CNT:
!!!OTL: Sub tuum praesidium
!!!PDT:
!!!AGN: Sacred
!!!YEC: Copyright 2022 Narodowy Instytut Fryderyka Chopina (https://polishscores.org)
!!!YEM: License CC-BY-4.0 (https://creativecommons.org/licenses/by/4.0)
!!!SMS-siglum: PL-Kk
!!!SMS-shelfmark: Kk.I.10
!!!SMS-shelfwork: 019 W
!!!SMS-variant:
!!!SMS-altvar:
!!!NIFC-rismSourceID: 1001151827
!!!NIFC-rismChildID: 1001154009
!!!NIFC-islandoraID: pl-kk:2434
!!!URL-pdf-islandora: https://repozytorium.nifc.pl/islandora/object/pl-kk%3A2434/datastream/PDF/view
!!!URL-scan: https://polish.musicsources.pl/pl/lokalizacje/galeria/rekopisy/5737 @EN{Scan on Polish Music Sources Website} @PL{Skany w portalu Dziedzictwo Muzyki Polskiej w otwartym dostępie}
!!!IIIF:
!!!ONB-nifc: UWAGA: S (0033-0034), T (0082, lewa strona), B (0132). Następny utwór: Sub tuum praesidium
!!!AIN: 1 alto 1 empty 1 tenor
!!!key:
**kern	**text	**kern	**text	**kern	**text
*part3	*	*part2	*	*part1	*
*staff3	*	*staff2	*	*staff1	*
*Iempty	*	*Itenor	*	*Ialto	*
*I"[Baſsus]	*	*I"[Tenor]	*	*I"[Altus]	*
*I'B	*	*I'T	*	*I'A	*
*clefF4	*	*clefC4	*	*clefC1	*
*k[]	*	*k[]	*	*k[]	*
*C:	*	*C:	*	*C:	*
*M3/2	*	*M3/2	*	*M3/2	*
*all\right	*	*	*	*all\right	*
*2\right	*	*	*	*2\right	*
=1-	=1-	=1-	=1-	=1-	=1-
2r	.	1.G	Sub	2r	.
2r	.	.	.	2dd	Sub
2G	Sub	.	.	2b	tu-
=2-	=2-	=2-	=2-	=2-	=2-
2E	tu-	1.G	tu-	1g	-um
2C	-um	.	.	.	.
2C	prae-	.	.	2b	prae-
=3-	=3-	=3-	=3-	=3-	=3-
2.G	-ſi-	1.B	-um	1dd	-ſi-
4G	-di-	.	.	.	.
2G	-um	.	.	2dd	-di-
=4-	=4-	=4-	=4-	=4-	=4-
2.c	Con-	1.c	prae-	2cc	-um
.	.	.	.	2r	.
4B	.	.	.	.	.
4A	.	.	.	2cc	con-
4G	.	.	.	.	.
=5-	=5-	=5-	=5-	=5-	=5-
2F	.	1.d	-ſi-	1cc	-fu-
2.G	fu-	.	.	.	.
.	.	.	.	2b	-gi-
4G	-gi-	.	.	.	.
=6-	=6-	=6-	=6-	=6-	=6-
2C	-mus	1.c	-di-	1.cc	-mus
2r	.	.	.	.	.
2D	con-	.	.	.	.
=7-	=7-	=7-	=7-	=7-	=7-
1E	-fu-	1.B	-um	2r	.
.	.	.	.	2r	.
2E	-gi-	.	.	2ee	Sub
=8-	=8-	=8-	=8-	=8-	=8-
2AA	-mus	1.c	Con-	2cc	tu-
2r	.	.	.	2a	-um
2A	ſub	.	.	4cc	prae-
.	.	.	.	4b	.
=9-	=9-	=9-	=9-	=9-	=9-
2F	tu-	1.d	.	2a	si-
2D	-um	.	.	4dd	.
.	.	.	.	4cc	.
2G	prae-	.	.	4b	-di-
.	.	.	.	4a	.
!LO:LB:g=original	!	!	!	!	!
=10-	=10-	=10-	=10-	=10-	=10-
2.C	-si-	1.e	.	2g/	-um
.	.	.	.	1cc	Con-
4C	-di-	.	.	.	.
2C	-um	.	.	.	.
!	!	!	!	!LO:LB:g=original	!
=11-	=11-	=11-	=11-	=11-	=11-
2r	.	1.d	-fu-	1cc	-fu-
1G	Con-	.	.	.	.
.	.	.	.	2b	-gi-
=12-	=12-	=12-	=12-	=12-	=12-
4A	-fu-	1.c	.	2cc	-mus
4B	.	.	.	.	.
4A	.	.	.	2r	.
4G	.	.	.	.	.
!	!	!	!	!LO:TX:t=P:problem=kreska pseudotaktowa	!
4F	.	.	.	2r	.
4E	.	.	.	.	.
=13-	=13-	=13-	=13-	=13	=13-
2.D/	.	1.d	-gi-	2r	.
.	.	.	.	2r	.
4D/	-gi-	.	.	.	.
2D/	-mus	.	.	2dd	Con-
=14-	=14-	=14-	=14-	=14-	=14-
2r	.	1.d	-mus	4b	-fu-
.	.	.	.	4cc	.
2r	.	.	.	4dd	.
.	.	.	.	4cc	.
*	*ij	*	*	*	*
2G	Con-	.	.	4b	.
.	.	.	.	4a	.
!	!	!LO:LB:g=original	!	!	!
=15-	=15-	=15-	=15-	=15-	=15-
4G	-fu-	1.d	San-	2.b	.
4A	.	.	.	.	.
4B	.	.	.	.	.
4A	.	.	.	4b	gi-
4G	.	.	.	4g	-mus
*	*	*	*	*	*ij
4F	.	.	.	4cc	Con-
=16-	=16-	=16-	=16-	=16-	=16-
2.G	.	1.d	-cta	4b	-fu-
.	.	.	.	4cc	.
.	.	.	.	4dd	.
4G	-gi-	.	.	4cc	.
2GG	-mus	.	.	4dd	.
*	*Xij	*	*	*	*
.	.	.	.	4b	.
=17-	=17-	=17-	=17-	=17-	=17-
2.AA	San-	1.c	.	2.cc	.
4BB	.	.	.	4cc	-gi-
4C	.	.	.	1g	-mus
*	*	*	*	*	*Xij
4D/	.	.	.	.	.
=18-	=18-	=18-	=18-	=18-	=18-
2.E	.	1.B	.	.	.
.	.	.	.	2r	.
4F	-cta	.	.	.	.
!	!	!	!	!LO:TX:t=P:problem=kreska pseudotaktowa	!
2G	De-	.	.	2r	.
!LO:LB:g=original	!	!	!	!	!
=19-	=19-	=19-	=19-	=19	=19-
*	*	*	*	*	*ij
2C	-i	1.A	.	2ee	Con-
2.D/	Ge-	.	.	4dd	-fu-
.	.	.	.	4ee	.
.	.	.	.	4dd	.
4D/	-ni-	.	.	4cc	.
=20-	=20-	=20-	=20-	=20-	=20-
1.GG	-trix	1.B	De-	2.b	.
.	.	.	.	4a	-gi-
.	.	.	.	2g/	-mus
*	*	*	*	*	*Xij
!	!	!	!	!LO:LB:g=original	!
=21-	=21-	=21-	=21-	=21-	=21-
2r	.	1.A	-i	2r	.
2r	.	.	.	2a	San-
2D/	Con-	.	.	2dd	-cta
=22-	=22-	=22-	=22-	=22-	=22-
4BB	-fu-	1.G	Ge-	1g	De-
4AA	.	.	.	.	.
4GG	.	.	.	.	.
4AA	.	.	.	.	.
4BB	.	.	.	2g/	-i
4C	.	.	.	.	.
=23-	=23-	=23-	=23-	=23-	=23-
2.D/	-gi-	1.F#X	-ni-	1a	Ge-
4D/	.	.	.	.	.
2D/	.	.	.	2a	-ni-
=24-	=24-	=24-	=24-	=24-	=24-
1GG	-mus	1.G	-trix	2g/	-trix
.	.	.	.	2r	.
!LO:TX:t=P::problem=kreska pseudotaktowa&colon;między nutą a kropką	!	!	!	!	!
2.G	San-	.	.	4dd	San-
.	.	.	.	4cc	.
=25	=25-	=25-	=25-	=25-	=25-
.	.	1.B	No-	4b	.
4A	.	.	.	4cc	.
4B	.	.	.	4dd	.
4A	.	.	.	4cc	.
4G	.	.	.	4b	.
4F	.	.	.	4a	.
=26-	=26-	=26-	=26-	=26-	=26-
2.E	.	1.c	-ſtras	1g	.
4D/	cta	.	.	.	.
2C	De-	.	.	2cc	-cta
=27-	=27-	=27-	=27-	=27-	=27-
2F	-i	1.d	de-	1cc	De-
2.G	Ge-	.	.	.	.
.	.	.	.	2b	-i
4G	-ni-	.	.	.	.
=28-	=28-	=28-	=28-	=28-	=28-
2C	-trix	1.c	-pre-	2.cc	Ge-
2r	.	.	.	.	.
.	.	.	.	4cc	-ni-
2r	.	.	.	2cc	-trix
!LO:LB:g=original	!	!	!	!	!
=29-	=29-	=29-	=29-	=29-	=29-
2.GG	No-	1.d	-ca-	2.dd	no-
4AA	-ſtras	.	.	4cc	-ſtras
2BB	de-	.	.	2b	de-
=30-	=30-	=30-	=30-	=30-	=30-
2C	-pre-	1.e	.	2ee	-pre-
2E	-ca-	.	.	2cc	-ca-
2F	-ti-	.	.	2a	-ti-
!	!	!LO:LB:g=original	!	!	!
=31-	=31-	=31-	=31-	=31-	=31-
1G	-o-	1.d	-ti-	2b	-o-
.	.	.	.	2g/	-nes
!	!	!	!	!LO:TX:t=P:problem=kreska pseudotaktowa	!
2G	-nes	.	.	2r	.
!	!	!	!	!LO:PB:g=original	!
=32-	=32-	=32-	=32-	=32	=32-
2r	.	1.d	-o-	2r	.
2D/	ne	.	.	2r	.
2D/	de-	.	.	4dd	ne
.	.	.	.	4cc	.
=33-	=33-	=33-	=33-	=33-	=33-
4G	.	1.d	-nes	4b	de-
4F	.	.	.	4a	.
4G	.	.	.	4b	.
4A	.	.	.	4cc	.
2B	.	.	.	2dd	.
=34-	=34-	=34-	=34-	=34-	=34-
1A	spi-	1.e	ne	1dd	ſpi-
2A	-ci-	.	.	2cc#X	-ci-
=35-	=35-	=35-	=35-	=35-	=35-
1.D	-as	1.d	de-	2dd	-as
.	.	.	.	2r	.
.	.	.	.	2r	.
=36-	=36-	=36-	=36-	=36-	=36-
2.A	in	1.c	-Spi-	1r	.
4E	ne-	.	.	.	.
4A	-ceſ-	.	.	2ryy	.
4G	-si-	.	.	.	.
=37-	=37-	=37-	=37-	=37-	=37-
2.F	-ta-	1.A	-ci-	2ryy	.
.	.	.	.	2.dd	in
4E	-ti-	.	.	.	.
2D/	-bus	.	.	.	.
.	.	.	.	4a	ne-
=38-	=38-	=38-	=38-	=38-	=38-
*	*ij	*	*	*	*
2.G	in	1.B	-as	4dd	-ceſ-
.	.	.	.	4cc	-si-
.	.	.	.	2.b	-ta-
4D	ne-	.	.	.	.
4G	-ceſ-	.	.	.	.
4F	-si-	.	.	4a	-ti-
=39-	=39-	=39-	=39-	=39-	=39-
2.E	-ta-	1.c,	.	2g/	-bus
.	.	.	.	1r	.
4D/	-ti-	.	.	.	.
2C	-bus	.	.	.	.
*	*Xij	*	*	*	*
!LO:LB:g=original	!	!	!	!	!
=40-	=40-	=40-	=40-	=40-	=40-
*	*	*	*	*	*ij
1.GG	no-	1.d	in	2.gg	in
.	.	.	.	4ee	ne-
.	.	.	.	4gg	-ceſ-
.	.	.	.	4ff	-si-
=41-	=41-	=41-	=41-	=41-	=41-
1.C	-ſtris	1.c	ne-	2.ee	-ta-
.	.	.	.	4dd	-ti-
.	.	.	.	2cc	-bus
*	*	*	*	*	*Xij
=42-	=42-	=42-	=42-	=42-	=42-
2r	.	1.B	.	4dd	No-
.	.	.	.	4cc	.
2G	ne	.	.	4b	.
.	.	.	.	4a	.
2E	de-	.	.	2g	.
!	!	!	!	!LO:LB:g=original	!
=43-	=43-	=43-	=43-	=43-	=43-
2.A	-ſpi-	1.A	.	1.a	-stris
4G	.	.	.	.	.
4F	.	.	.	.	.
4E	.	.	.	.	.
=44-	=44-	=44-	=44-	=44-	=44-
2D	.	1.B	-ceſ-	2r	.
2.E	.	.	.	2.ee	Sed
4E	-ci-	.	.	4dd	.
=45-	=45-	=45-	=45-	=45-	=45-
2AA	-as	1.A	-si-	4cc	a
.	.	.	.	4dd	.
*	*ij	*	*	*	*
2AA	ne	.	.	4ee	.
.	.	.	.	4cc	.
2D/	de-	.	.	2ff	pe-
=46-	=46-	=46-	=46-	=46-	=46-
1D	-ſpi-	1.G	-ta-	2.ee	-ri-
.	.	.	.	4ee	-cu-
2C#X	-ci-	.	.	2ee	-lis
!	!	!LO:LB:g=original	!	!	!
=47-	=47-	=47-	=47-	=47-	=47-
*	*	*	*	*	*ij
1D	-as	1.F#X	-ti-	2dd	Sed
*	*Xij	*	*	*	*
.	.	.	.	2a	a
2r	.	.	.	2dd	pe-
=48-	=48-	=48-	=48-	=48-	=48-
2GG	Sed	1.G	-bus	2.b	-ri-
2D/	a	.	.	.	.
.	.	.	.	4b	-cu-
2G	pe-	.	.	2b	-lis
*	*	*	*	*	*Xij
=49-	=49-	=49-	=49-	=49-	=49-
2.D	-ri-	1.A	Sed	2r	.
.	.	.	.	4a	cun-
4D	-cu-	.	.	8bL	.
.	.	.	.	8ccJ	.
2D	-lis	.	.	4dd	.
.	.	.	.	4cc	.
=50-	=50-	=50-	=50-	=50-	=50-
4E	cun-	1.G	a	2.b	.
4F	.	.	.	.	.
4E	.	.	.	.	.
4D	.	.	.	8ccL	.
.	.	.	.	8ddJ	.
4C	.	.	.	4ee	.
4BB	.	.	.	4dd	.
=51-	=51-	=51-	=51-	=51-	=51-
2AA	.	1.A	pe-	2cc	-ctis
2AA	-ctis	.	.	2.ee	cun-
2r	.	.	.	.	.
.	.	.	.	4dd	.
!LO:LB:g=original	!	!	!	!	!
=52-	=52-	=52-	=52-	=52-	=52-
2.A	li-	1.c	-ri-	4cc	.
.	.	.	.	4b	.
.	.	.	.	1a	.
4G	.	.	.	.	.
4F	be-	.	.	.	.
4E	.	.	.	.	.
!	!	!	!	!LO:LB:g=original	!
=53-	=53-	=53-	=53-	=53-	=53-
2G	-ra	1.B	-cu-	2b	.
1GG	-nos	.	.	2b	-ctis
.	.	.	.	2r	.
=54-	=54-	=54-	=54-	=54-	=54-
*	*ij	*	*	*	*
2.D/	li-	1.A	-lis	2r	.
.	.	.	.	2.dd	li-
4C	.	.	.	.	.
4BB	be-	.	.	.	.
4AA	.	.	.	4cc	.
=55-	=55-	=55-	=55-	=55-	=55-
2GG	-ra	1.B	Cun-	4b	-be
.	.	.	.	4a	.
2GG	-nos	.	.	2g/	ra
*	*Xij	*	*	*	*
2r	.	.	.	2d	-nos
=56-	=56-	=56-	=56-	=56-	=56-
2.A	li-	1.c	.	2r	.
.	.	.	.	2.a	li-
4G	.	.	.	.	.
4F	-be-	.	.	.	.
4E	.	.	.	4g/	.
=57-	=57-	=57-	=57-	=57-	=57-
2D/	-ra	1.d	-ctis	4f	be-
.	.	.	.	4e	-ra
2D/	-nos	.	.	2d	nos
*	*	*	*	*	*ij
2r	.	.	.	2.dd	li-
=58-	=58-	=58-	=58-	=58-	=58-
2.G	li-	1.d	li-	.	.
.	.	.	.	4cc	.
.	.	.	.	4b	-be-
4F	.	.	.	4a	-ra
4E	.	.	.	2g	nos
4D	.	.	.	.	.
=59-	=59-	=59-	=59-	=59-	=59-
2.C	-be-	1.e	-be-	2.gg	li-
4D/	.	.	.	4ff	.
2E	-ra	.	.	4ee	be-
.	.	.	.	4dd	-ra
=60-	=60-	=60-	=60-	=60-	=60-
2F	nos	1.d	-ra	2cc	nos
*	*	*	*	*	*Xij
!LO:TX:t=P:problem=kreska pseudotaktowa	!	!	!	!	!
1G	ſem-	.	.	2cc	Sem-
.	.	.	.	2b	-per
=61	=61-	=61-	=61-	=61-	=61-
2C	-per	1.c	.	2.cc	Vir-
2C	Vir-	.	.	.	.
.	.	.	.	4b	.
!LO:LB:g=original	!	!	!	!	!
!LO:TX:t=P:problem=kreska pseudotaktowa	!	!	!	!	!
2D	-go	.	.	2a	-go
!	!	!	!	!LO:LB:g=original	!
=62	=62-	=62-	=62-	=62-	=62-
2.E	glo-	1.B	nos	2a	glo-
.	.	.	.	2a	-ri-
4D	.	.	.	.	.
2E	-ri-	.	.	2g#X	-o-
!	!	!LO:LB:g=original	!	!	!
=63-	=63-	=63-	=63-	=63-	=63-
2AA	-o-	1.c	Sem-	2a	-sa
2AA	-ſa	.	.	2r	.
2r	.	.	.	2r	.
=64-	=64-	=64-	=64-	=64-	=64-
1r	.	1.d	.	2.a	Vir-
.	.	.	.	4dd	-go
2ryy	.	.	.	4a	glo-
.	.	.	.	4b	-ri-
=65-	=65-	=65-	=65-	=65-	=65-
2.AA	Vir-	1.c	-per	2cc	-o-
.	.	.	.	2cc	-sa
4A	-go	.	.	.	.
4E	glo-	.	.	2r	.
4F	-ri-	.	.	.	.
=66-	=66-	=66-	=66-	=66-	=66-
*	*	*	*	*	*ij
2G	-o-	1.B	.	2.b	Vir-
1GG	-sa	.	.	.	.
.	.	.	.	4ee	-go
.	.	.	.	4b	glo-
.	.	.	.	4cc	-ri-
=67-	=67-	=67-	=67-	=67-	=67-
2.D	Vir-	1.A	Vir-	2dd	-o-
.	.	.	.	2a	-sa
*	*	*	*	*	*Xij
4E	.	.	.	.	.
4F	.	.	.	2b	et
4G	.	.	.	.	.
=68-	=68-	=68-	=68-	=68-	=68-
2A	.	1.A	-go	2.cc	be-
2F	.	.	.	.	.
.	.	.	.	4b	-ne-
2C	-go	.	.	2a	-di-
=69-	=69-	=69-	=69-	=69-	=69-
2D/	glo-	1.A	glo-	2a	-cta
(2C	-ri-	.	.	2r	.
2D)/	.	.	.	2r	.
=70-	=70-	=70-	=70-	=70-	=70-
1.E	-o-	1.G	-ri-	2.ee	Vir-
.	.	.	.	4b	-go
.	.	.	.	4ee	glo-
.	.	.	.	4dd	-ri-
=71-	=71-	=71-	=71-	=71-	=71-
2AA	-sa	1.A	-o-	2cc	-o-
2r	.	.	.	2a	-ſa
2r	.	.	.	2cc	et
!LO:LB:g=original	!	!	!	!LO:LB:g=original	!
=72-	=72-	=72-	=72-	=72-	=72-
2.A	Vir-	1.c	-sa	2.cc	be-
4E	-go	.	.	4ee	-ne-
4A	glo-	.	.	2cc	-di-
4G	-ri-	.	.	.	.
=73-	=73-	=73-	=73-	=73-	=73-
!LO:TX:b:t=Aliud Sequit(ur) Eiusdem Authoris B. Czechowic	!	!	!	!	!
2F	-o-	1.A	et	1.a	-cta
2D	-sa	.	.	.	.
2D	et	.	.	.	.
=74-	=74-	=74-	=74-	=74-	=74-
2.G	be-	1.B	bene-	2.b	Vir-
4F	.	.	.	4b	-go
4E	ne-	.	.	4cc	glo-
4D	.	.	.	4dd	-ri-
=75-	=75-	=75-	=75-	=75-	=75-
2C	-di-	1.A	-di-	2ee	-o-
1D	.	.	.	4dd	.
.	.	.	.	4ee	.
.	.	.	.	4dd	.
.	.	.	.	4cc	.
=76-	=76-	=76-	=76-	=76-	=76-
!	!	!LO:TX:t=6	!	!	!
2GG	-cta	[00.G	-cta	2b	-sa
2.G	et	.	.	4dd	et
.	.	.	.	4cc	.
!	!	!	!	!LO:TX:t=P:problem=kreska pseudotaktowa	!
.	.	.	.	2b	be-
4F	.	.	.	.	.
=77-	=77-	=77-	=77-	=77	=77-
2.E	be-	.	.	(4b	-ne-
.	.	.	.	4a)	.
.	.	.	.	2g/	-di-
4D	.	.	.	.	.
2C	.	.	.	2g/	-cta
=78-	=78-	=78-	=78-	=78-	=78-
2BB	-ne-	.	.	(4gg	et
.	.	.	.	4ff)	.
2C	-di-	.	.	2ee	be-
2GG	-cta	.	.	2dd	-ne-
=79-	=79-	=79-	=79-	=79-	=79-
2.C	et	.	.	4ee	-di-
.	.	.	.	4dd	.
.	.	.	.	2cc	-cta
4D	.	.	.	.	.
4E	.	.	.	2cc	et
4F	.	.	.	.	.
=80-	=80-	=80-	=80-	=80-	=80-
2G	.	0.G_	.	2b	be-
2C	be-	.	.	2cc	.
2BB	-ne-	.	.	2dd	-ne-
=81-	=81-	=81-	=81-	=81-	=81-
1.C	-di-	.	.	1.ee	-di-
=82-	=82-	=82-	=82-	=82-	=82-
!LO:N:vis=0	!	!	!	!LO:N:vis=0	!
1.GG	-cta	1.G]	.	1.dd	-cta
==	==	==	==	==	==
*-	*-	*-	*-	*-	*-
!!!system-decoration: [(s1,s2,s3)]
!!!ENC: Kamil Watkowski
!!!END: 2021-07-09
